!!!ONB: MCCC : ILB0176_03 : Extracted Monophonic Melody
!!!COM: Beethoven, Ludwig van
!!!OPR: Piano Sonata No.15
!!!OMV: 3
!!!SCT: Op.28
!!!ODT: 1801///
**kern
*thru
*staff1
*Ipiano
*>A
*clefG2
*k[f#c#]
*D:
*M3/4
*MM220
=1
[2.ff#
=2
2.ff#]
=3
2.r
=4
2.r
=5
8a
8f#
4d
4r
=6
8b
8g
4e
4r
=7
8g
8e
4c#
4r
=8
4d
4d
4r
=9
[2.aa
=10
2.aa]
=11
2.r
=12
2.r
=13
8ee
8cc#
4a
4r
=14
8ff#
8dd
4b
4r
=15
8dd
8b
4g#
4r
=16
4a
4a
4r
=17
2.ff#
=18
2.f#
=19
2.r
=20
2.r
=21
8a
8f#
4d
4r
=22
8b
8g
4e
4r
=23
8g
8e
4c#
4r
=24
4d
4d
4r
=25
2.aa
=26
2.a
=27
2.r
=28
2.r
=29
8ee
8cc#
4a
4r
=30
8ff#
8dd
4b
4r
=31
8dd
8b
4g#
4r
=32
4a
4a
4r
=33
*>B
4r
4dd
4dd
=34
4r
4dd
4dd
=35
4r
4dd
4dd
=36
4r
4dd
4dd
=37
4r
4ee
4ee
=38
4r
4ee
4ee
=39
4r
4ee
4ee
=40
4r
4ee
4ee
=41
4r
4ff#
4ff#
=42
4r
4ff#
4ff#
=43
4r
4ff#
4ff#
=44
4r
4ff#
4ff#
=45
4r
4gg
4gg
=46
4r
4gg
4gg
=47
4r
2gg[
=48
2.gg]
=49
2.ff#
=50
2.f#
=51
2.r
=52
2.r
=53
8a
8f#
4d
4r
=54
8b
8g
4e
4r
=55
8g
8e
4c#
4r
=56
4d
4d
4r
=57
2.ddd
=58
2.dd
=59
2.r
=60
2.r
=61
8aa
8ff#
4dd#
4r
=62
8bb
8gg
4ee
4r
=63
8aa
8ee
4cc#
4r
=64
8dd
8a
4f#
4r
=65
8a
8e
4c#
4r
=66
8d
8A
4F#
4r
=67
2.r
=68
2.r
=69
4ddd
4r
4r
=70
2.r
=71
*>B
4r
4dd
4dd
=72
4r
4dd
4dd
=73
4r
4dd
4dd
=74
4r
4dd
4dd
=75
4r
4ee
4ee
=76
4r
4ee
4ee
=77
4r
4ee
4ee
=78
4r
4ee
4ee
=79
4r
4ff#
4ff#
=80
4r
4ff#
4ff#
=81
4r
4ff#
4ff#
=82
4r
4ff#
4ff#
=83
4r
4gg
4gg
=84
4r
4gg
4gg
=85
4r
2gg[
=86
2.gg]
=87
2.ff#
=88
2.f#
=89
2.r
=90
2.r
=91
8a
8f#
4d
4r
=92
8b
8g
4e
4r
=93
8g
8e
4c#
4r
=94
4d
4d
4r
=95
2.ddd
=96
2.dd
=97
2.r
=98
2.r
=99
8aa
8ff#
4dd#
4r
=100
8bb
8gg
4ee
4r
=101
8aa
8ee
4cc#
4r
=102
8dd
8a
4f#
4r
=103
8a
8e
4c#
4r
=104
8d
8A
4F#
4r
=105
2.r
=106
2.r
=107
4ddd
4r
4r
=108
2.r
=109
*>C
*M3/4
2.ff#
=110
4.dd
8cc#
4b
=111
4b
4b
4a#
=112
2.b
=113
2.ff#
=114
4.dd
8cc#
4b
=115
4b
4b
4cc#
=116
2.dd
=117
*>C
2.ff#
=118
4.dd
8cc#
4b
=119
4b
4b
4a#
=120
2.b
=121
2.ff#
=122
4.dd
8cc#
4b
=123
4b
4b
4cc#
=124
2.dd
=125
*>D
2.ff#
=126
4.dd
8cc#
4b
=127
4b
4b
4cc#
=128
2.dd
=129
2.ff#
=130
4.dd
8cc#
4b
=131
4b
4b
4a#
=132
2.b
=133
2.ff#
=134
4.dd
8cc#
4b
=135
4b
4b
4cc#
=136
2.dd
=137
2.ff#
=138
4.dd
8cc#
4b
=139
4b
4b
4a#
=140
2.b
=141
*>A
[2.ff#
=142
2.ff#]
=143
2.r
=144
2.r
=145
8a
8f#
4d
4r
=146
8b
8g
4e
4r
=147
8g
8e
4c#
4r
=148
4d
4d
4r
=149
[2.aa
=150
2.aa]
=151
2.r
=152
2.r
=153
8ee
8cc#
4a
4r
=154
8ff#
8dd
4b
4r
=155
8dd
8b
4g#
4r
=156
4a
4a
4r
=157
2.ff#
=158
2.f#
=159
2.r
=160
2.r
=161
8a
8f#
4d
4r
=162
8b
8g
4e
4r
=163
8g
8e
4c#
4r
=164
4d
4d
4r
=165
2.aa
=166
2.a
=167
2.r
=168
2.r
=169
8ee
8cc#
4a
4r
=170
8ff#
8dd
4b
4r
=171
8dd
8b
4g#
4r
=172
4a
4a
4r
=173
*>B
4r
4dd
4dd
=174
4r
4dd
4dd
=175
4r
4dd
4dd
=176
4r
4dd
4dd
=177
4r
4ee
4ee
=178
4r
4ee
4ee
=179
4r
4ee
4ee
=180
4r
4ee
4ee
=181
4r
4ff#
4ff#
=182
4r
4ff#
4ff#
=183
4r
4ff#
4ff#
=184
4r
4ff#
4ff#
=185
4r
4gg
4gg
=186
4r
4gg
4gg
=187
4r
2gg[
=188
2.gg]
=189
2.ff#
=190
2.f#
=191
2.r
=192
2.r
=193
8a
8f#
4d
4r
=194
8b
8g
4e
4r
=195
8g
8e
4c#
4r
=196
4d
4d
4r
=197
2.ddd
=198
2.dd
=199
2.r
=200
2.r
=201
8aa
8ff#
4dd#
4r
=202
8bb
8gg
4ee
4r
=203
8aa
8ee
4cc#
4r
=204
8dd
8a
4f#
4r
=205
8a
8e
4c#
4r
=206
8d
8A
4F#
4r
=207
2.r
=208
2.r
=209
4ddd
4r
4r
=210
2.r
==
*-
